!!!COM: Charles Gounod
!!!CNT: Francais
!!!TXO: Francais
!!!OTL: Tombez, Mes Ailes
!!!LYR: Ernest Legouve/
!!!ENC: Jacob Pegg
!!!YOR: Romantic French Song 1830-1870 -David Tunley, ed.,
!!!YOR: New York: Garland Publishing, Inc., 1995, Vol. 5
!!!ODT: 1866/
!!NB: Vocal melody and text only encoded.
!!NB: First instance of melodic material only encoded.
**kern	**silbe
*clef G2	*
*k[b-]	*
*M2/4	*
*MM[allegretto]	*
!!created: 5/30/03 0:01
!!proofed and posted: 6/5/03 20:14
!!edit time: 24 min.
=13	=13
{8a	{Pe-
8a	-ti-
8f	-te
8g	four-
=14	=14
4a	-mi
8g	se/-
8a	-ri-
=15	=15
4f	-eu-
8d}	-se,}
8r	.
=16	=16
{4.a	{Qui
8a	tra-
=17	=17
4a	-vail-
4a	-les
=18	=18
4b-	sur
8b-	ce
8b-	sil-
=19	=19
4g}	-lon,}
8r	.
{8g	{Hi-
=20	=20
4.cc	-er
8b-	au
=21	=21
8a}	ciel,}
8r	.
{8cc	{comme
8dd	un
=22	=22
4cc	gai
8g	pa-
8b-	-pil-
=23	=23
8a}	-lon,}
8r	.
{8a	{Tu
8a	vo-
=24	=24
8g#}	-lais,}
8r	.
{8dd	{tu
8dd	vo-
=25	=25
8cc#	-lais
8ee	vive
8a	et
8cc#	ri-
=26	=26
2bn	-eu-
=27	=27
4a}	-se!}
8r	.
{8a	{D'ou\
=28	=28
4dd}	vient,}
8r	.
{8dd	{dis~
=29	=29
4ccn}	~moi,}
8r	.
{8ccn	{d'ou\
=30	=30
8b-	vient
8b-	qu'a-
8cc	-vant
8b-	l'hi-
=31	=31
[4a	-ver,
8a]}	|}
8r	.
=32	=32
{4dd	{De
8ee	pa-
8dd	-pil-
=33	=33
2ccn	-lon
=34	=34
4b-	de-
8cc	-ve-
8b-	-nu
=35	=35
8a}	ver,}
{8a	{Tu
8cc	ram-
8b-	-pes
=36	=36
8a	et
8a	tu
8f	n'as
8g	plus
=37	=37
2a	d'ai-
=38	=38
4a}	-les?}
8r	.
{8a	{Ou\
=39	=39
4.a	donc
8bn	sont~
=40	=40
4bn	~el-
4a}	-les,}
=41	=41
8r	.
{8bn	{De-
8cc#	-puis
8bn	hi-
=42	=42
8a}	-ver?}
8r	.
{[4dd	{Fil-
=43	=43
4dd]	|
8cc#	-le
8bn	de
=44	=44
8dd}	l'air,}
{8f#	{Ou\
8a	sont
8d	tes
=45	=45
(4.f#	ai-
8e)	|
=46	=46
4d}	-les?}
4r	.
*-	*-
